places/scalable/folder-red-drag-accept.svg

<svg xmlns="http://www.w3.org/2000/svg" style="isolation:isolate" width="256" height="256"><defs><clipPath id="a"><path d="M0 0h256v256H0z"/></clipPath></defs><g clip-path="url(#a)"><path fill="none" d="M0 0h256v256H0z"/><path d="M53.705 21c-36.315 0-40.038 2.055-40.038 38.371v92.167h230V79.563c0-36.316-3.724-42.102-40.039-42.102h-89.336L97.864 21H53.705z" fill="#BC1938"/><path d="M53.705 100.384c-36.317 0-40.038 3.73-40.038 40.045v54.524c0 36.316 3.721 40.047 40.038 40.047h149.923c36.317 0 40.039-3.731 40.039-40.047v-70.984c0-36.316-3.722-40.047-40.039-40.047h-83.431l-16.438 16.462H53.705z" fill="#F22C42"/><linearGradient id="b" y1=".5" x2="0" y2="-.5" gradientTransform="matrix(230 0 0 151.078 13.667 83.922)" gradientUnits="userSpaceOnUse"><stop offset="0%" stop-opacity=".07" stop-color="#fff"/><stop offset="67.282%" stop-opacity="0" stop-color="#fcefe8"/></linearGradient><path d="M53.705 100.384c-36.317 0-40.038 3.73-40.038 40.045v54.524c0 36.316 3.721 40.047 40.038 40.047h149.923c36.317 0 40.039-3.731 40.039-40.047v-70.984c0-36.316-3.722-40.047-40.039-40.047h-83.431l-16.438 16.462H53.705z" fill="url(#b)"/><g opacity=".4"><radialGradient id="c" fx=".5" fy=".136" cx=".5" cy=".5" r=".272" gradientTransform="matrix(230 0 0 60.62 13.667 21)" gradientUnits="userSpaceOnUse"><stop offset="0%" stop-color="#fff"/><stop offset="100%" stop-opacity=".204" stop-color="#fff"/></radialGradient><path d="M53.705 21c-36.315 0-40.038 2.055-40.038 38.371v2.059c0-36.316 3.723-38.373 40.038-38.373h44.159l16.428 16.461h89.336c36.315 0 40.039 5.786 40.039 42.102v-2.057c0-36.316-3.724-42.102-40.039-42.102h-89.336L97.864 21H53.705z" fill="url(#c)"/></g><g opacity=".4"><radialGradient id="d" fx=".482" fy=".211" cx=".5" cy=".5" r=".272" gradientTransform="matrix(230 0 0 58.565 13.667 83.922)" gradientUnits="userSpaceOnUse"><stop offset="0%" stop-color="#fff"/><stop offset="100%" stop-opacity=".204" stop-color="#fff"/></radialGradient><path d="M120.197 83.922l-16.438 16.462H53.705c-36.315 0-40.038 3.728-40.038 40.043v2.06c0-36.316 3.723-40.046 40.038-40.046h50.054l16.438-16.46h83.431c36.315 0 40.039 3.727 40.039 40.043v-2.057c0-36.316-3.724-40.045-40.039-40.045h-83.431z" fill="url(#d)"/></g><path d="M243.667 167.096l-65.715 65.845h25.676c36.315 0 40.039-3.727 40.039-40.043v-25.802z" fill="#FFF" opacity=".1"/><path d="M13.667 192.898v2.057c0 36.316 3.723 40.045 40.038 40.045h149.923c36.315 0 40.039-3.729 40.039-40.045v-2.057c0 36.316-3.724 40.043-40.039 40.043H53.705c-36.315 0-40.038-3.727-40.038-40.043z" opacity=".2"/></g></svg>

<?xml version="1.0" standalone="no"?><!-- Generator: Gravit.io -->
<svg xmlns="http://www.w3.org/2000/svg" 
  xmlns:xlink="http://www.w3.org/1999/xlink" style="isolation:isolate" viewBox="0 0 256 256" width="256" height="256">
  <defs>
    <clipPath id="_clipPath_Z4PNnL6y2Tgir4YVhVIzYdSZ8W49Oz1s">
      <rect width="256" height="256"/>
    </clipPath>
  </defs>
  <g clip-path="url(#_clipPath_Z4PNnL6y2Tgir4YVhVIzYdSZ8W49Oz1s)">
    <rect width="256" height="256" style="fill:rgb(0,0,0)" fill-opacity="0"/>
    <g id="folder">
      <path d=" M 53.705 21 C 17.39 21 13.667 23.055 13.667 59.371 L 13.667 151.538 L 243.667 151.538 L 243.667 79.563 C 243.667 43.247 239.943 37.461 203.628 37.461 L 114.292 37.461 L 97.864 21 L 53.705 21 Z " id="orange" fill="#BC1938"/>
      <path d=" M 53.705 100.384 C 17.388 100.384 13.667 104.114 13.667 140.429 L 13.667 194.953 C 13.667 231.269 17.388 235 53.705 235 L 203.628 235 C 239.945 235 243.667 231.269 243.667 194.953 L 243.667 123.969 C 243.667 87.653 239.945 83.922 203.628 83.922 L 120.197 83.922 L 103.759 100.384 L 53.705 100.384 Z " id="change-color-easy" fill="#F22C42"/>
      <linearGradient id="_lgradient_11" x1="0" y1="0.5" x2="2.83276944882399e-16" y2="-0.5" gradientTransform="matrix(230,0,0,151.078,13.667,83.922)" gradientUnits="userSpaceOnUse">
        <stop offset="0%" stop-opacity="0.07" style="stop-color:rgb(255,255,255)"/>
        <stop offset="67.28219512106674%" stop-opacity="0" style="stop-color:rgb(252,239,232)"/>
      </linearGradient>
      <path d=" M 53.705 100.384 C 17.388 100.384 13.667 104.114 13.667 140.429 L 13.667 194.953 C 13.667 231.269 17.388 235 53.705 235 L 203.628 235 C 239.945 235 243.667 231.269 243.667 194.953 L 243.667 123.969 C 243.667 87.653 239.945 83.922 203.628 83.922 L 120.197 83.922 L 103.759 100.384 L 53.705 100.384 Z " id="gradient white" fill="url(#_lgradient_11)"/>
      <g opacity="0.4">
        <radialGradient id="_rgradient_22" fx="0.5000000213726793" fy="0.13577386516315215" cx="0.5" cy="0.5" r="0.27154159375000003" gradientTransform="matrix(230,0,0,60.62,13.667,21)" gradientUnits="userSpaceOnUse">
          <stop offset="0%" stop-opacity="1" style="stop-color:rgb(255,255,255)"/>
          <stop offset="100%" stop-opacity="0.20392157" style="stop-color:rgb(255,255,255)"/>
        </radialGradient>
        <path d=" M 53.705 21 C 17.39 21 13.667 23.055 13.667 59.371 L 13.667 61.43 C 13.667 25.114 17.39 23.057 53.705 23.057 L 97.864 23.057 L 114.292 39.518 L 203.628 39.518 C 239.943 39.518 243.667 45.304 243.667 81.62 L 243.667 79.563 C 243.667 43.247 239.943 37.461 203.628 37.461 L 114.292 37.461 L 97.864 21 L 53.705 21 Z " id="white" fill="url(#_rgradient_22)"/>
      </g>
      <g opacity="0.4">
        <radialGradient id="_rgradient_23" fx="0.48214287810452355" fy="0.2108154047287485" cx="0.5" cy="0.5" r="0.27154159375" gradientTransform="matrix(230,0,0,58.565,13.667,83.922)" gradientUnits="userSpaceOnUse">
          <stop offset="0%" stop-opacity="1" style="stop-color:rgb(255,255,255)"/>
          <stop offset="100%" stop-opacity="0.20392157" style="stop-color:rgb(255,255,255)"/>
        </radialGradient>
        <path d=" M 120.197 83.922 L 103.759 100.384 L 53.705 100.384 C 17.39 100.384 13.667 104.112 13.667 140.427 L 13.667 142.487 C 13.667 106.171 17.39 102.441 53.705 102.441 L 103.759 102.441 L 120.197 85.981 L 203.628 85.981 C 239.943 85.981 243.667 89.708 243.667 126.024 L 243.667 123.967 C 243.667 87.651 239.943 83.922 203.628 83.922 L 120.197 83.922 Z " id="white" fill="url(#_rgradient_23)"/>
      </g>
      <g opacity="0.1">
        <path d=" M 243.667 167.096 L 177.952 232.941 L 203.628 232.941 C 239.943 232.941 243.667 229.214 243.667 192.898 L 243.667 167.096 Z " id="white" fill="rgb(255,255,255)"/>
      </g>
      <g opacity="0.2">
        <path d=" M 13.667 192.898 L 13.667 194.955 C 13.667 231.271 17.39 235 53.705 235 L 203.628 235 C 239.943 235 243.667 231.271 243.667 194.955 L 243.667 192.898 C 243.667 229.214 239.943 232.941 203.628 232.941 L 53.705 232.941 C 17.39 232.941 13.667 229.214 13.667 192.898 Z " id="dark" fill="rgb(0,0,0)"/>
      </g>
    </g>
  </g>
</svg>
